SVG_Azure_All/Firewall Manager.svg

<?xml version="1.0" encoding="UTF-8" standalone="no"?>
<!-- Generated by Microsoft Visio, SVG Export Firewall Manager.svg Page-1 -->

<svg
   xmlns:dc="http://purl.org/dc/elements/1.1/"
   xmlns:cc="http://creativecommons.org/ns#"
   xmlns:rdf="http://www.w3.org/1999/02/22-rdf-syntax-ns#"
   xmlns:svg="http://www.w3.org/2000/svg"
   xmlns="http://www.w3.org/2000/svg"
   xmlns:sodipodi="http://sodipodi.sourceforge.net/DTD/sodipodi-0.dtd"
   xmlns:inkscape="http://www.inkscape.org/namespaces/inkscape"
   width="0.78741693in"
   height="0.63012451in"
   viewBox="0 0 56.694166 45.368836"
   xml:space="preserve"
   class="st8"
   version="1.1"
   id="svg96"
   sodipodi:docname="Firewall Manager.svg"
   style="font-size:12px;overflow:visible;color-interpolation-filters:sRGB;fill:none;fill-rule:evenodd;stroke-linecap:square;stroke-miterlimit:3"
   inkscape:version="0.92.5 (2060ec1f9f, 2020-04-08)"><metadata
   id="metadata100"><rdf:RDF><cc:Work
       rdf:about=""><dc:format>image/svg+xml</dc:format><dc:type
         rdf:resource="http://purl.org/dc/dcmitype/StillImage" /></cc:Work></rdf:RDF></metadata><sodipodi:namedview
   pagecolor="#ffffff"
   bordercolor="#666666"
   borderopacity="1"
   objecttolerance="10"
   gridtolerance="10"
   guidetolerance="10"
   inkscape:pageopacity="0"
   inkscape:pageshadow="2"
   inkscape:window-width="640"
   inkscape:window-height="480"
   id="namedview98"
   showgrid="false"
   inkscape:zoom="1.5750369"
   inkscape:cx="37.795855"
   inkscape:cy="29.564457"
   inkscape:window-x="0"
   inkscape:window-y="0"
   inkscape:window-maximized="0"
   inkscape:current-layer="svg96" />
	<style
   type="text/css"
   id="style2">
	<![CDATA[
		.st1 {fill:#821010;stroke:none;stroke-linecap:butt;stroke-width:32.995}
		.st2 {fill:#e62323;stroke:none;stroke-linecap:butt;stroke-width:32.995}
		.st3 {fill:#ff7381;stroke:none;stroke-linecap:butt;stroke-width:32.995}
		.st4 {fill:none;stroke:none;stroke-linecap:butt;stroke-width:32.995}
		.st5 {fill:#dfa500;stroke:none;stroke-linecap:butt;stroke-width:32.995}
		.st6 {fill:url(#grad0-28);stroke:none;stroke-linecap:butt;stroke-width:32.995}
		.st7 {fill:#ffd400;stroke:none;stroke-linecap:butt;stroke-width:32.995}
		.st8 {fill:none;fill-rule:evenodd;font-size:12px;overflow:visible;stroke-linecap:square;stroke-miterlimit:3}
	]]>
	</style>

	<defs
   id="Patterns_And_Gradients">
		<linearGradient
   id="grad0-28"
   x1="0"
   y1="74.202017"
   x2="27.565406"
   y2="74.202017"
   gradientTransform="scale(0.90556525,1.1042827)"
   gradientUnits="userSpaceOnUse">
			<stop
   offset="0"
   stop-color="#ffd70f"
   stop-opacity="1"
   id="stop4" />
			<stop
   offset="0.12"
   stop-color="#ffcc11"
   stop-opacity="1"
   id="stop6" />
			<stop
   offset="0.44"
   stop-color="#feb517"
   stop-opacity="1"
   id="stop8" />
			<stop
   offset="0.75"
   stop-color="#fea61a"
   stop-opacity="1"
   id="stop10" />
			<stop
   offset="1"
   stop-color="#fea11b"
   stop-opacity="1"
   id="stop12" />
		</linearGradient>
	</defs>
	<g
   id="g94"
   transform="translate(-32.995035,-32.993624)">
		<title
   id="title16">Page-1</title>
		<g
   id="group4557-1"
   transform="translate(32.9962,-34.0157)">
			<title
   id="title18">Firewall Manager</title>
			<g
   id="group4558-2">
				<title
   id="title20">g45</title>
				<g
   id="shape4559-3"
   transform="translate(0,-20.5885)">
					<title
   id="title22">path17</title>
					<path
   d="m 24.9,102.68 c 0,-0.66 0.3,-0.98 0.97,-0.98 9.2,-0.36 7.21,-4.24 13.8,-4.24 a 7.90994,7.84749 0 0 1 5.2,1.52 V 89.4 a 1.38349,1.37257 -180 0 0 -1.5,-1.79 H 1.86 A 1.7444,1.73063 -180 0 0 0,89.4 v 21.19 a 1.95493,1.93949 -180 0 0 1.8,1.79 h 23.1 z"
   class="st1"
   id="path24"
   inkscape:connector-curvature="0"
   style="fill:#821010;stroke:none;stroke-width:32.99499893;stroke-linecap:butt" />
				</g>
				<g
   id="shape4560-5"
   transform="translate(2.76698,-37.5964)">
					<title
   id="title27">rect19</title>
					<rect
   x="0"
   y="107.007"
   width="12.3311"
   height="5.3709102"
   class="st2"
   id="rect29"
   style="fill:#e62323;stroke:none;stroke-width:32.99499893;stroke-linecap:butt" />
				</g>
				<g
   id="shape4561-7"
   transform="translate(16.6019,-37.5964)">
					<title
   id="title32">rect21</title>
					<rect
   x="0"
   y="107.007"
   width="12.3311"
   height="5.3709102"
   class="st3"
   id="rect34"
   style="fill:#ff7381;stroke:none;stroke-width:32.99499893;stroke-linecap:butt" />
				</g>
				<g
   id="shape4562-9"
   transform="translate(30.7375,-37.5964)">
					<title
   id="title37">rect23</title>
					<rect
   x="0"
   y="107.007"
   width="12.3311"
   height="5.3709102"
   class="st2"
   id="rect39"
   style="fill:#e62323;stroke:none;stroke-width:32.99499893;stroke-linecap:butt" />
				</g>
				<g
   id="shape4563-11"
   transform="translate(2.76698,-30.1368)">
					<title
   id="title42">rect25</title>
					<rect
   x="0"
   y="107.007"
   width="5.1128898"
   height="5.3709102"
   class="st2"
   id="rect44"
   style="fill:#e62323;stroke:none;stroke-width:32.99499893;stroke-linecap:butt" />
				</g>
				<g
   id="shape4564-13"
   transform="translate(9.68441,-30.1368)">
					<title
   id="title47">rect27</title>
					<rect
   x="0"
   y="107.007"
   width="12.3311"
   height="5.3709102"
   class="st3"
   id="rect49"
   style="fill:#ff7381;stroke:none;stroke-width:32.99499893;stroke-linecap:butt" />
				</g>
				<g
   id="shape4565-15"
   transform="translate(23.5193,-30.1368)">
					<title
   id="title52">path29</title>
					<path
   d="m 0,112.38 h 1.38 c 0,-0.66 0.3,-0.99 0.97,-0.99 6.73,-0.24 7.48,-2.38 9.98,-3.52 v -0.86 H 0 Z"
   class="st2"
   id="path54"
   inkscape:connector-curvature="0"
   style="fill:#e62323;stroke:none;stroke-width:32.99499893;stroke-linecap:butt" />
				</g>
				<g
   id="shape4566-17"
   transform="translate(2.76698,-22.9755)">
					<title
   id="title57">rect31</title>
					<rect
   x="0"
   y="107.007"
   width="12.3311"
   height="5.3709102"
   class="st2"
   id="rect59"
   style="fill:#e62323;stroke:none;stroke-width:32.99499893;stroke-linecap:butt" />
				</g>
				<g
   id="shape4567-19"
   transform="translate(16.6019,-22.9755)">
					<title
   id="title62">rect33</title>
					<rect
   x="0"
   y="107.007"
   width="8.30093"
   height="5.3709102"
   class="st3"
   id="rect64"
   style="fill:#ff7381;stroke:none;stroke-width:32.99499893;stroke-linecap:butt" />
				</g>
				<g
   id="shape4568-21"
   transform="translate(23.3088)">
					<title
   id="title67">rect35</title>
					<rect
   x="0"
   y="79.2575"
   width="33.384201"
   height="33.120602"
   class="st4"
   id="rect69"
   style="fill:none;stroke:none;stroke-width:32.99499893;stroke-linecap:butt" />
				</g>
				<g
   id="shape4569-23"
   transform="translate(26.3163,-0.708645)">
					<title
   id="title72">path37</title>
					<path
   d="m 27.37,94.74 c 0,8.95 -10.38,16.8 -13.2,17.57 a 1.7444,1.73063 0 0 1 -0.97,0 C 10.38,111.54 0,103.66 0,94.74 V 83.99 A 0.812047,0.805636 0 0 1 0.902274,83.094849 C 9.32,82.8 7.52,79.22 13.53,79.22 c 6.02,0 4.21,3.58 12.64,3.88 a 0.812047,0.805636 0 0 1 0.902274,0.895151 z"
   class="st5"
   id="path74"
   inkscape:connector-curvature="0"
   style="fill:#dfa500;stroke:none;stroke-width:32.99499893;stroke-linecap:butt" />
				</g>
				<g
   id="shape4570-25"
   transform="translate(27.5194,-1.93949)">
					<title
   id="title77">path39</title>
					<path
   d="M 12.33,97.16 V 81.94 c 5.72,0 3.91,3.29 11.73,3.58 a 0.962426,0.954828 0 0 1 0.902274,0.895151 L 24.96,96.86 Z m 0,0 H 0 c 0.6,7.76 9.93,13.73 12.03,14.92 l 0.6,0.3 z"
   class="st6"
   id="path79"
   inkscape:connector-curvature="0"
   style="fill:url(#grad0-28);stroke:none;stroke-width:32.99499893;stroke-linecap:butt" />
				</g>
				<g
   id="shape4571-29"
   transform="translate(27.5194,-17.0079)">
					<title
   id="title82">path41</title>
					<path
   d="m 0.6,100.74 c 7.82,-0.3 6.02,-3.58 11.73,-3.58 v 15.22 H 0 v -10.89 c 0,-0.6 0.3,-0.75 0.6,-0.75 z"
   class="st7"
   id="path84"
   inkscape:connector-curvature="0"
   style="fill:#ffd400;stroke:none;stroke-width:32.99499893;stroke-linecap:butt" />
				</g>
				<g
   id="shape4572-31"
   transform="translate(39.8505,-1.93949)">
					<title
   id="title87">path43</title>
					<path
   d="M 12.63,96.86 0,97.16 0.3,112.38 h 0.3 c 2.11,-1.49 11.13,-7.76 12.03,-15.52 z"
   class="st7"
   id="path89"
   inkscape:connector-curvature="0"
   style="fill:#ffd400;stroke:none;stroke-width:32.99499893;stroke-linecap:butt" />
				</g>
			</g>
		</g>
	</g>
</svg>

<?xml version="1.0" encoding="UTF-8" standalone="no"?>
<!DOCTYPE svg PUBLIC "-//W3C//DTD SVG 1.1//EN" "http://www.w3.org/Graphics/SVG/1.1/DTD/svg11.dtd">
<!-- Generated by Microsoft Visio, SVG Export Firewall Manager.svg Page-1 -->
<svg xmlns="http://www.w3.org/2000/svg" xmlns:xlink="http://www.w3.org/1999/xlink" xmlns:ev="http://www.w3.org/2001/xml-events"
		width="1.70394in" height="1.56081in" viewBox="0 0 122.684 112.378" xml:space="preserve" color-interpolation-filters="sRGB"
		class="st8">
	<style type="text/css">
	<![CDATA[
		.st1 {fill:#821010;stroke:none;stroke-linecap:butt;stroke-width:32.995}
		.st2 {fill:#e62323;stroke:none;stroke-linecap:butt;stroke-width:32.995}
		.st3 {fill:#ff7381;stroke:none;stroke-linecap:butt;stroke-width:32.995}
		.st4 {fill:none;stroke:none;stroke-linecap:butt;stroke-width:32.995}
		.st5 {fill:#dfa500;stroke:none;stroke-linecap:butt;stroke-width:32.995}
		.st6 {fill:url(#grad0-28);stroke:none;stroke-linecap:butt;stroke-width:32.995}
		.st7 {fill:#ffd400;stroke:none;stroke-linecap:butt;stroke-width:32.995}
		.st8 {fill:none;fill-rule:evenodd;font-size:12px;overflow:visible;stroke-linecap:square;stroke-miterlimit:3}
	]]>
	</style>

	<defs id="Patterns_And_Gradients">
		<linearGradient id="grad0-28" x1="0" y1="0" x2="1" y2="0" gradientTransform="rotate(90 0.5 0.5)">
			<stop offset="0" stop-color="#ffd70f" stop-opacity="1"/>
			<stop offset="0.12" stop-color="#ffcc11" stop-opacity="1"/>
			<stop offset="0.44" stop-color="#feb517" stop-opacity="1"/>
			<stop offset="0.75" stop-color="#fea61a" stop-opacity="1"/>
			<stop offset="1" stop-color="#fea11b" stop-opacity="1"/>
		</linearGradient>
	</defs>
	<g>
		<title>Page-1</title>
		<g id="group4460-1" transform="translate(32.9962,-34.0157)">
			<title>Firewall Manager</title>
			<g id="group4461-2">
				<title>g45</title>
				<g id="shape4462-3" transform="translate(0,-20.5885)">
					<title>path17</title>
					<path d="M24.9 102.68 C24.9 102.02 25.2 101.7 25.87 101.7 C35.07 101.34 33.08 97.46 39.67 97.46 A7.90994 7.84749
								 0 0 1 44.87 98.98 L44.87 89.4 A1.38349 1.37257 -180 0 0 43.37 87.61 L1.86 87.61 A1.7444 1.73063
								 -180 0 0 -0 89.4 L0 110.59 A1.95493 1.93949 -180 0 0 1.8 112.38 L24.9 112.38 L24.9 102.68 Z"
							class="st1"/>
				</g>
				<g id="shape4463-5" transform="translate(2.76698,-37.5964)">
					<title>rect19</title>
					<rect x="0" y="107.007" width="12.3311" height="5.37091" class="st2"/>
				</g>
				<g id="shape4464-7" transform="translate(16.6019,-37.5964)">
					<title>rect21</title>
					<rect x="0" y="107.007" width="12.3311" height="5.37091" class="st3"/>
				</g>
				<g id="shape4465-9" transform="translate(30.7375,-37.5964)">
					<title>rect23</title>
					<rect x="0" y="107.007" width="12.3311" height="5.37091" class="st2"/>
				</g>
				<g id="shape4466-11" transform="translate(2.76698,-30.1368)">
					<title>rect25</title>
					<rect x="0" y="107.007" width="5.11289" height="5.37091" class="st2"/>
				</g>
				<g id="shape4467-13" transform="translate(9.68441,-30.1368)">
					<title>rect27</title>
					<rect x="0" y="107.007" width="12.3311" height="5.37091" class="st3"/>
				</g>
				<g id="shape4468-15" transform="translate(23.5193,-30.1368)">
					<title>path29</title>
					<path d="M0 112.38 L1.38 112.38 C1.38 111.72 1.68 111.39 2.35 111.39 C9.08 111.15 9.83 109.01 12.33 107.87 L12.33
								 107.01 L0 107.01 L0 112.38 Z" class="st2"/>
				</g>
				<g id="shape4469-17" transform="translate(2.76698,-22.9755)">
					<title>rect31</title>
					<rect x="0" y="107.007" width="12.3311" height="5.37091" class="st2"/>
				</g>
				<g id="shape4470-19" transform="translate(16.6019,-22.9755)">
					<title>rect33</title>
					<rect x="0" y="107.007" width="8.30093" height="5.37091" class="st3"/>
				</g>
				<g id="shape4471-21" transform="translate(23.3088,0)">
					<title>rect35</title>
					<rect x="0" y="79.2575" width="33.3842" height="33.1206" class="st4"/>
				</g>
				<g id="shape4472-23" transform="translate(26.3163,-0.708645)">
					<title>path37</title>
					<path d="M27.37 94.74 C27.37 103.69 16.99 111.54 14.17 112.31 A1.7444 1.73063 0 0 1 13.2 112.31 C10.38 111.54
								 0 103.66 0 94.74 L0 83.99 a0.812047 0.805636 0 0 1 0.902274 -0.895151 C9.32 82.8 7.52 79.22 13.53
								 79.22 C19.55 79.22 17.74 82.8 26.17 83.1 a0.812047 0.805636 0 0 1 0.902274 0.895151 L27.37 94.74
								 Z" class="st5"/>
				</g>
				<g id="shape4473-25" transform="translate(27.5194,-1.93949)">
					<title>path39</title>
					<path d="M12.33 97.16 L12.33 81.94 C18.05 81.94 16.24 85.23 24.06 85.52 a0.962426 0.954828 0 0 1 0.902274 0.895151
								 L24.96 96.86 L12.33 97.16 ZM12.33 97.16 L0 97.16 C0.6 104.92 9.93 110.89 12.03 112.08 L12.63 112.38
								 L12.33 97.16 Z" class="st6"/>
				</g>
				<g id="shape4474-29" transform="translate(27.5194,-17.0079)">
					<title>path41</title>
					<path d="M0.6 100.74 C8.42 100.44 6.62 97.16 12.33 97.16 L12.33 112.38 L0 112.38 L0 101.49 C0 100.89 0.3 100.74
								 0.6 100.74 Z" class="st7"/>
				</g>
				<g id="shape4475-31" transform="translate(39.8505,-1.93949)">
					<title>path43</title>
					<path d="M12.63 96.86 L0 97.16 L0.3 112.38 L0.6 112.38 C2.71 110.89 11.73 104.62 12.63 96.86 Z" class="st7"/>
				</g>
			</g>
		</g>
	</g>
</svg>
